X: 3434
T: OVER THE MOONLIGHT SEA WALTZ
N: AKA "Santa Lucia"
%R: waltz
B: James Kerr "Merry Melodies" v.3 p.49 #434
Z: 2016 John Chambers <jc:trillian.mit.edu>
M: 3/4
L: 1/8
K: D
|:\
A2(A3d) | dcc4 | G2(G3B) | (BA)A4 |\
F2(B3A) | (A^G)=G4 | G2(F3E) | B2A4 ::\
f2e2d2 | cBe4 | e2d2B2 | ^GAd4 |\
(fd)(dA)(AF) | (Ge)e4 | e2B2c2 | e2d4 :|

%%sep 1 1 500
%%sep 1 1 500

